!!!COM:	Du Fay, Guillaume
!!!CDT:	~1397/08/05/-1474/11/27
!!!OPR:	Missa Se la face ay pale
!!!ONM:	3
!!!OTL:	Credo
!!!AGN:	Mass; Credo
!!!SCT:	Duf1005c
!!!SCA:	Duf1005c
!!!voices:	4
!!!voices-OPR:	4
!!!ONB: This is the performance edition (hidden material made visible).
!!midi-transpose: -2
**kern	**text	**kern	**text	**kern	**text	**kern	**text
*staff4	*staff4	*staff3	*staff3	*staff2	*staff2	*staff1	*staff1
*Ivox	*	*Ivox	*	*Ivox	*	*Ivox	*
*I"Bassus	*	*I"Tenor	*	*I"Contratenor	*	*I"Cantus	*
*I'B	*	*I'T	*	*I'Ct	*	*I'Cn	*
*>[A,B,C]	*>[A,B,C]	*>[A,B,C]	*>[A,B,C]	*>[A,B,C]	*>[A,B,C]	*>[A,B,C]	*>[A,B,C]
*>A	*>A	*>A	*>A	*>A	*>A	*>A	*>A
*clefF4	*	*clefGv2	*	*clefGv2	*	*clefG2	*
*k[]	*	*k[]	*	*k[]	*	*k[]	*
*M3/1	*	*M3/1	*	*M3/1	*	*M3/1	*
*met(O)	*	*met(O)	*	*met(O)	*	*met(O)	*
*MM384	*MM384	*MM384	*MM384	*MM384	*MM384	*MM384	*MM384
!!section: Patrem omnipotentem
!!!OMD: Patrem omnipotentem
=1-	=1-	=1-	=1-	=1-	=1-	=1-	=1-
0.r	.	0.r	.	0.c	Pa-	1.cc	Pa-
.	.	.	.	.	.	2b\	.
.	.	.	.	.	.	1a	.
=2	=2	=2	=2	=2	=2	=2	=2
0.r	.	0.r	.	1.c	.	1g	.
.	.	.	.	.	.	1.cc	.
.	.	.	.	2B\	.	.	.
.	.	.	.	1A	.	.	.
.	.	.	.	.	.	2b\	.
=3	=3	=3	=3	=3	=3	=3	=3
0.r	.	0.r	.	1G	.	1b	.
.	.	.	.	0c	.	2a/	.
.	.	.	.	.	.	2g/	.
.	.	.	.	.	.	1e	.
=4	=4	=4	=4	=4	=4	=4	=4
0.r	.	0.r	.	0.B	-trem	0d	-trem
.	.	.	.	.	.	1r	.
=5	=5	=5	=5	=5	=5	=5	=5
0.r	.	0.r	.	1r	.	1c	om-
.	.	.	.	0c	om-	2e/	.
.	.	.	.	.	.	2f/	.
.	.	.	.	.	.	1g	.
=6	=6	=6	=6	=6	=6	=6	=6
0.r	.	0.r	.	1c	-ni-	1cc	-ni-
.	.	.	.	2e\	.	1b	.
.	.	.	.	2f\	.	.	.
.	.	.	.	1g	-po-	1ee	-po-
=7	=7	=7	=7	=7	=7	=7	=7
0.r	.	0.r	.	1c	-ten-	1ee	-ten-
.	.	.	.	1B	.	1.dd	.
.	.	.	.	[1e	.	.	.
.	.	.	.	.	.	2cc\	.
=8	=8	=8	=8	=8	=8	=8	=8
0.r	.	0.r	.	1e]	.	1.cc	.
.	.	.	.	0d	.	.	.
.	.	.	.	.	.	2b\	.
.	.	.	.	.	.	2b\	.
.	.	.	.	.	.	2a/	.
=9	=9	=9	=9	=9	=9	=9	=9
0.r	.	0.r	.	0.c	-tem,	1cc	-tem,
.	.	.	.	.	.	1r	.
.	.	.	.	.	.	1cc	fac-
=10	=10	=10	=10	=10	=10	=10	=10
0.r	.	0.r	.	1r	.	1b	-to-
.	.	.	.	1r	.	1.a	-rem
.	.	.	.	1c	fac-	.	.
.	.	.	.	.	.	2g/	.
=11	=11	=11	=11	=11	=11	=11	=11
0.r	.	0.r	.	1B	-to-	1g	ce-
.	.	.	.	0A	-rem	1.cc	.
.	.	.	.	.	.	2b\	.
=12	=12	=12	=12	=12	=12	=12	=12
0.r	.	0.r	.	1G	ce-	1b	-li
.	.	.	.	0c	-li	1.a	et
.	.	.	.	.	.	2g/	.
=13	=13	=13	=13	=13	=13	=13	=13
0.r	.	0.r	.	1B	et	1.g	ter-
.	.	.	.	0A	ter-	.	.
.	.	.	.	.	.	2f#i/	.
.	.	.	.	.	.	2f#i/	.
.	.	.	.	.	.	2e/	.
=14	=14	=14	=14	=14	=14	=14	=14
0.r	.	0.r	.	0G	-re,	0.g	-re,
.	.	.	.	1c	vi-	.	.
=15	=15	=15	=15	=15	=15	=15	=15
0.r	.	0.r	.	1d	-si-	1r	.
.	.	.	.	0e	-bi-	1r	.
.	.	.	.	.	.	1cc	vi-
=16	=16	=16	=16	=16	=16	=16	=16
0.r	.	0.r	.	1f	.	1dd	-si-
.	.	.	.	1.g	.	2.ee\	-bi-
.	.	.	.	.	.	4dd\	.
.	.	.	.	.	.	2b\	.
.	.	.	.	2e\	.	4cc\	.
.	.	.	.	.	.	4b\	.
=17	=17	=17	=17	=17	=17	=17	=17
0.r	.	0.r	.	2f\	.	4a/	.
.	.	.	.	.	.	4g/	.
.	.	.	.	2g\	.	1g	.
.	.	.	.	2e\	.	.	.
.	.	.	.	2c\	.	2e/	.
.	.	.	.	1d	-li-	2.f/	-li-
.	.	.	.	.	.	4g/	.
=18	=18	=18	=18	=18	=18	=18	=18
0.r	.	0.r	.	2c\	-um	2e/	-um
.	.	.	.	1f	om-	2.d/	om-
.	.	.	.	.	.	4c/	.
.	.	.	.	2e\	.	1c	.
.	.	.	.	1d	-ni-	.	.
.	.	.	.	.	.	2B/	-ni-
=19	=19	=19	=19	=19	=19	=19	=19
0.C	Et	[0.c	Et	0.c	-um,	1c	-um,
.	.	.	.	.	.	1r	.
.	.	.	.	.	.	2g/	et
.	.	.	.	.	.	2g/	in-
=20	=20	=20	=20	=20	=20	=20	=20
0.F	.	0.c]	.	1r	.	2a/	-vi-
.	.	.	.	.	.	2a/	-si-
.	.	.	.	1r	.	2a/	-bi-
.	.	.	.	.	.	2b\	-li-
.	.	.	.	1f	et	1cc	-um.
=21	=21	=21	=21	=21	=21	=21	=21
0.F	in	0.c	in-	0f	in-	1cc	Et
.	.	.	.	.	.	1a	in
.	.	.	.	1f	-vi-	1a	u-
=22	=22	=22	=22	=22	=22	=22	=22
0.G	u-	[0.B	-vi-	0d	-si-	1g	-num
.	.	.	.	.	.	2g/	do-
.	.	.	.	.	.	2f/	-mi-
.	.	.	.	[1g	-bi-	1d	-num
=23	=23	=23	=23	=23	=23	=23	=23
0.E	.	0.B]	.	1g]	.	2e/	Ie-
.	.	.	.	.	.	2f/	-sum
.	.	.	.	0e	-li-	1g	Chri-
.	.	.	.	.	.	1g	-stum,
=24	=24	=24	=24	=24	=24	=24	=24
0.F	-num	0.A	-si-	0c	-um.	1a	fi-
.	.	.	.	.	.	2b\	-li-
.	.	.	.	.	.	1cc	-um
.	.	.	.	1f	Et	.	.
.	.	.	.	.	.	[2a/	de-
=25	=25	=25	=25	=25	=25	=25	=25
1A	do-	1.c	-bi-	1e	in	2a/]	.
.	.	.	.	.	.	2cc\	.
1F	.	.	.	2f\	.	2b\	.
.	.	1.d	.	2.f\	u-	1a	-i
1B-	-mi-	.	.	.	.	.	.
.	.	.	.	4e\	.	.	.
.	.	.	.	2d\	-num	2g/	u-
=26	=26	=26	=26	=26	=26	=26	=26
1A	-num	0.e	.	1c	do-	1a	-ni-
0G	.	.	.	1B	-mi-	1.b	-ge-
.	.	.	.	1B	-num	.	.
.	.	.	.	.	.	2a/	-ni-
=27	=27	=27	=27	=27	=27	=27	=27
1.F	Ie-	0.f	-li-	2c\	Ie-	0.a	-tum.
.	.	.	.	1d	.	.	.
2E\	.	.	.	2c\	.	.	.
1D	-sum	.	.	2A/	-sum	.	.
.	.	.	.	2B\	.	.	.
=28	=28	=28	=28	=28	=28	=28	=28
0.C	Chri-	0.e	-um...	1c	Chri-	0.r	.
.	.	.	.	1c	-stum,	.	.
.	.	.	.	1G	.	.	.
=29	=29	=29	=29	=29	=29	=29	=29
0.G	.	[0.d	.	1r	.	1g	Et
.	.	.	.	1B-	fi-	1g	ex
.	.	.	.	1B-	-li-	1g	pa-
=30	=30	=30	=30	=30	=30	=30	=30
0.D	-stum,	0.d]	.	0A	-um	1f	-tre
.	.	.	.	.	.	2f/	na-
.	.	.	.	.	.	2g/	.
.	.	.	.	1A	de-	[1a	.
=31	=31	=31	=31	=31	=31	=31	=31
0.F	fi-	0.c	u-	0A	-i	2a/]	.
.	.	.	.	.	.	2b\	.
.	.	.	.	.	.	1cc	.
.	.	.	.	2f\	u-	1a	-tum
.	.	.	.	2f\	-ni-	.	.
=32	=32	=32	=32	=32	=32	=32	=32
1E	-li-	1.G	-ni-	1g	-ge-	2b\	an-
.	.	.	.	.	.	2b\	-te
1C	-um	.	.	1e	-ni-	1cc	om-
.	.	[1.A	-ge-	.	.	.	.
[1F	de-	.	.	1c	-tum	2.a/	-ni-
.	.	.	.	.	.	4f/	.
=33	=33	=33	=33	=33	=33	=33	=33
2F\]	.	1.A]	.	0.r	.	2f/	-a
2C/	.	.	.	.	.	2e/	.
1F	.	.	.	.	.	2c/	.
.	.	1.B	-ni-	.	.	2f/	se-
1G	.	.	.	.	.	4e/	.
.	.	.	.	.	.	2e/	-cu-
.	.	.	.	.	.	4d/	.
=34	=34	=34	=34	=34	=34	=34	=34
*	*	*	*	*^	*	*	*
[0.F	-i	[0.c	-tum...-	0A\	0a/	Et	1f	-la.
.	.	.	.	.	.	.	1r	.
.	.	.	.	[1A\	[1a/	ex	1r	.
=35	=35	=35	=35	=35	=35	=35	=35	=35
0.F]	.	0.c]	.	1A]\	1a]/	.	1.f	De-
*	*	*	*	*v	*v	*	*	*
.	.	.	.	0f	pa-	.	.
.	.	.	.	.	.	1a	-um
.	.	.	.	.	.	2b\	de
=36	=36	=36	=36	=36	=36	=36	=36
0A	u-	0.r	.	1e	-tre	1cc	de-
.	.	.	.	1a	na-	1cc	-o,
1B	-ni-	.	.	2g\	.	1dd	lu-
.	.	.	.	2f\	.	.	.
=37	=37	=37	=37	=37	=37	=37	=37
0.c	-ge-	[0.g	-de-	0e	-tum	0ee	-men
.	.	.	.	1e	an-	1cc	de
=38	=38	=38	=38	=38	=38	=38	=38
0.G	-ni-	0.g]	.	1d	-te	1dd	lu-
.	.	.	.	1d	om-	1.b	-mi-
.	.	.	.	1d	-ni-	.	.
.	.	.	.	.	.	2a/	.
=39	=39	=39	=39	=39	=39	=39	=39
0.C	-tum.	0.g	-um	0e	-a	0cc	-ne.
.	.	.	.	2e\	se-	1cc	De-
.	.	.	.	2f\	.	.	.
=40	=40	=40	=40	=40	=40	=40	=40
0.r	.	[0.c	ve-	1g	.	1.cc	-um
.	.	.	.	2a\	-cu-	.	.
.	.	.	.	2g\	.	2b\	.
.	.	.	.	1e	-la,	2a/	ve-
.	.	.	.	.	.	2g/	.
=41	=41	=41	=41	=41	=41	=41	=41
0C	Et	0.c]	.	1r	.	0g	-rum
.	.	.	.	1e	De-	.	.
1C	ex	.	.	1e	-um	1a	de
=42	=42	=42	=42	=42	=42	=42	=42
1G	pa-	0.B	-rum	2d\	de	0b	de-
.	.	.	.	1g	.	.	.
2E\	.	.	.	.	.	.	.
2F\	.	.	.	2f\	.	.	.
1G	-tre	.	.	1d	.	1g	-o
=43	=43	=43	=43	=43	=43	=43	=43
1C	na-	1.c	de	1e	de-	1g	ve-
0F	-tum	.	.	0A	-o,	1.a	.
.	.	1.d	de-	.	.	.	.
.	.	.	.	.	.	2g/	.
=44	=44	=44	=44	=44	=44	=44	=44
1E	an-	1.e	-o	1B	lu-	1g	-ro.
1C	.	.	.	1c	-men	1r	.
.	.	1.f	.	.	.	.	.
[1D	-te	.	.	1A	de	1r	.
=45	=45	=45	=45	=45	=45	=45	=45
1D]	.	0.d	ve-	1A	lu-	0.r	.
0BB	.	.	.	1.B	.	.	.
.	.	.	.	2G/	-mi-	.	.
=46	=46	=46	=46	=46	=46	=46	=46
0C	.	[0.c	-ro.	0.G	-ne,	1.e	Ge-
.	.	.	.	.	.	2f/	-ni-
1C	om-	.	.	.	.	1g	-tum,
=47	=47	=47	=47	=47	=47	=47	=47
1.F	-ni-	0.c]	.	1r	.	2a/	non
.	.	.	.	.	.	2b\	.
.	.	.	.	1r	.	1cc	fac-
2G\	.	.	.	.	.	.	.
1A	.	.	.	1e	de-	1cc	-tum
=48	=48	=48	=48	=48	=48	=48	=48
1d	-a	0.r	.	1f	-um	2b\	con-
.	.	.	.	.	.	1a	-sub-
2c\	se-	.	.	2e\	ve-	.	.
2A\	.	.	.	2c\	.	1a	-stan-
1B-	-cu-	.	.	1d	.	.	.
.	.	.	.	.	.	2g/	-ti-
=49	=49	=49	=49	=49	=49	=49	=49
0.A	-la.	0.a	per	1e	-rum	2.a/	-a-
.	.	.	.	.	.	4g/	.
.	.	.	.	0c	de	1e	.
.	.	.	.	.	.	1e	-lem
=50	=50	=50	=50	=50	=50	=50	=50
0.F	.	1.a	quem	1c	de-	1.f	pa-
.	.	.	.	2d\	-o	.	.
.	.	[1.a	om-	2c\	.	2e/	.
.	.	.	.	1A	ve-	1c	-tri,
=51	=51	=51	=51	=51	=51	=51	=51
0.r	.	1.a]	.	0.F	-ro.	1cc	per
.	.	.	.	.	.	1cc	quem
.	.	1.a	-ni-	.	.	.	.
.	.	.	.	.	.	1dd	om-
=52	=52	=52	=52	=52	=52	=52	=52
0.r	.	[0.g	-a	0c	Ge-	2ee\	-ni-
.	.	.	.	.	.	1ee	-a
.	.	.	.	.	.	2.ee\	fac-
.	.	.	.	1c	-ni-	.	.
.	.	.	.	.	.	4dd\	.
.	.	.	.	.	.	2cc\	-ta
=53	=53	=53	=53	=53	=53	=53	=53
0.r	.	0.g]	.	0G	-tum,	1b	sunt.
.	.	.	.	.	.	1r	.
.	.	.	.	1c	non	1cc	Qui
=54	=54	=54	=54	=54	=54	=54	=54
0.r	.	1.r	.	1c	fac-	2a/	prop-
.	.	.	.	.	.	2a/	-ter
.	.	.	.	1c	-tum	1g	nos
.	.	1.c	Qui	.	.	.	.
.	.	.	.	1A	con-	1cc	.
=55	=55	=55	=55	=55	=55	=55	=55
0.r	.	1.d	prop-	1G	-sub-	1b	ho-
.	.	.	.	2B\	-stan-	2g/	-mi-
.	.	1.e	-ter	2A/	.	2a/	.
.	.	.	.	1c	-ti-	2g/	-nes,
.	.	.	.	.	.	2cc\	et
=56	=56	=56	=56	=56	=56	=56	=56
0.r	.	0.f	nos...	0d	-a-	2b\	prop-
.	.	.	.	.	.	1a	-ter
.	.	.	.	.	.	1dd	no-
.	.	.	.	1d	-lem	.	.
.	.	.	.	.	.	[2dd\	-stram
=57	=57	=57	=57	=57	=57	=57	=57
0.r	.	0.d	.	0G	pa-	2dd\]	.
.	.	.	.	.	.	1b	sa-
.	.	.	.	.	.	2g/	.
.	.	.	.	1F	.	2.a/	-lu-
.	.	.	.	.	.	4g/	.
=58	=58	=58	=58	=58	=58	=58	=58
0C	Et	0.c	.	1G	-tri,	1e	-tem
.	.	.	.	2r	.	1cc	de-
.	.	.	.	2g\	per	.	.
1F	prop-	.	.	1a	quem	1cc	-scen-
=59	=59	=59	=59	=59	=59	=59	=59
1G	.	0.r	.	1g	om-	1b	-dit
0A	.	.	.	2e\	-ni-	1cc	de
.	.	.	.	1f#i	-a	.	.
.	.	.	.	.	.	1a	ce-
.	.	.	.	2e\	.	.	.
=60	=60	=60	=60	=60	=60	=60	=60
0.G	-ter	0.d	Et	0g	fac-	0b	-lis.
.	.	.	.	1g	-ta	1r	.
=61	=61	=61	=61	=61	=61	=61	=61
[0.C	.	0.c	.	0.e	sunt.	1g	Et
.	.	.	.	.	.	1g	in-
.	.	.	.	.	.	1g	-car-
=62	=62	=62	=62	=62	=62	=62	=62
0.C]	.	0.G	.	0c	Qui	1e	-na-
.	.	.	.	.	.	1e	-tus
.	.	.	.	2c\	pro-	1e	est
.	.	.	.	2d\	.	.	.
=63	=63	=63	=63	=63	=63	=63	=63
0.r	.	1.g	in-	0e	-ter	1c	de
.	.	.	.	.	.	1c	spi-
.	.	1.g	-car-	.	.	.	.
.	.	.	.	1c	.	1cc	-ri-
=64	=64	=64	=64	=64	=64	=64	=64
0.G	no-	1.g	-na-	0d	.	2b\	-tu
.	.	.	.	.	.	2.dd\	san-
.	.	.	.	.	.	4cc\	.
.	.	1.g	-tus	.	.	2cc\	.
.	.	.	.	1d	nos	2.b\	.
.	.	.	.	.	.	4a/	.
=65	=65	=65	=65	=65	=65	=65	=65
0A	.	0.c	est...	1r	.	1cc	-cto
.	.	.	.	1e	ho-	1a	ex
1E	.	.	.	1e	-mi-	1g	Ma-
=66	=66	=66	=66	=66	=66	=66	=66
0.D	-stram	1.r	.	1A	-nes,	2f/	-ri-
.	.	.	.	.	.	2g/	.
.	.	.	.	0f	et	1a	.
.	.	1.d	fa-	.	.	.	.
.	.	.	.	.	.	2a/	-a
.	.	.	.	.	.	2b\	.
=67	=67	=67	=67	=67	=67	=67	=67
0A	sa-	0.c	.	1e	prop-	1.cc	vir-
.	.	.	.	1e	-ter	.	.
.	.	.	.	.	.	2b\	-gi-
1F	.	.	.	1f	no-	1a	-ne:
=68	=68	=68	=68	=68	=68	=68	=68
0G	-lu-	0.B-	.	0d	-stram	1g	et
.	.	.	.	.	.	1g	ho-
[1D	.	.	.	[1d	sa-	2.f/	-mo
.	.	.	.	.	.	4d/	.
=69	=69	=69	=69	=69	=69	=69	=69
1D]	.	0.A	-tus	1d]	.	2.f/	fac-
.	.	.	.	.	.	4g/	.
0F	.	.	.	0c	-lu-	2a/	.
.	.	.	.	.	.	2.a/	-tus
.	.	.	.	.	.	4g/	.
.	.	.	.	.	.	2f/	.
=70	=70	=70	=70	=70	=70	=70	=70
0.C	-tem	0.G	est.	0c	-tem	0.e	est.
.	.	.	.	1r	.	.	.
=71	=71	=71	=71	=71	=71	=71	=71
0.c	de-	0.r	.	1.e	de-	0.r	.
.	.	.	.	2f\	.	.	.
.	.	.	.	1g	.	.	.
=72	=72	=72	=72	=72	=72	=72	=72
1.c	-scen-	0.r	.	1a	-scen-	0.r	.
.	.	.	.	2g\	.	.	.
2B\	.	.	.	2.g\	.	.	.
2G\	.	.	.	.	.	.	.
.	.	.	.	4f\	.	.	.
2A\	.	.	.	2e\	.	.	.
=73	=73	=73	=73	=73	=73	=73	=73
1B	-dit	0.r	.	1d	-dit	0.r	.
0c	de	.	.	1.a	de	.	.
.	.	.	.	2g\	.	.	.
=74	=74	=74	=74	=74	=74	=74	=74
1B	ce-	0.r	.	1.g	ce-	0.r	.
0A	.	.	.	.	.	.	.
.	.	.	.	2f#i\	.	.	.
.	.	.	.	2f#i\	.	.	.
.	.	.	.	2e\	.	.	.
=75	=75	=75	=75	=75	=75	=75	=75
0G	-lis.	0.r	.	1g	-lis.	0.r	.
.	.	.	.	1r	.	.	.
1G	Et	.	.	1d	Et	.	.
=76	=76	=76	=76	=76	=76	=76	=76
1G	in-	0.r	.	2e\	in-	0.r	.
.	.	.	.	1d	.	.	.
2F\	.	.	.	.	.	.	.
2E\	.	.	.	2c\	.	.	.
1G	-car-	.	.	2.B\	-car-	.	.
.	.	.	.	4G/	.	.	.
=77	=77	=77	=77	=77	=77	=77	=77
2F\	-na-	0.r	.	2A/	-na-	0.r	.
1G	.	.	.	2B\	.	.	.
.	.	.	.	1G	.	.	.
2E\	.	.	.	.	.	.	.
2F\	-tus	.	.	2A/	-tus	.	.
2E\	.	.	.	2G/	.	.	.
=78	=78	=78	=78	=78	=78	=78	=78
1.C	est	0.r	.	2.c\	est	0.r	.
.	.	.	.	4B\	.	.	.
.	.	.	.	2G/	.	.	.
2BB/	de	.	.	2r	.	.	.
2C/	.	.	.	2e\	de	.	.
2D\	.	.	.	2f\	.	.	.
=79	=79	=79	=79	=79	=79	=79	=79
2E\	spi-	0.r	.	2.g\	spi-	0.r	.
1C	.	.	.	.	.	.	.
.	.	.	.	4f\	.	.	.
.	.	.	.	2e\	.	.	.
2BB/	.	.	.	2.d\	.	.	.
1D	.	.	.	.	.	.	.
.	.	.	.	4e\	.	.	.
.	.	.	.	4f\	.	.	.
.	.	.	.	4g\	.	.	.
=80	=80	=80	=80	=80	=80	=80	=80
2C/	.	0.r	.	2e\	.	0.r	.
1F	.	.	.	2.d\	.	.	.
.	.	.	.	4c\	.	.	.
2E\	.	.	.	2.c\	-ri-	.	.
1D	-ri-	.	.	.	.	.	.
.	.	.	.	4A/	.	.	.
.	.	.	.	2B\	.	.	.
=81	=81	=81	=81	=81	=81	=81	=81
1C	-tu	0.r	.	1c	-tu	0.r	.
2E\	san-	.	.	1c	san-	.	.
2F\	.	.	.	.	.	.	.
1G	.	.	.	2.B\	.	.	.
.	.	.	.	4G/	.	.	.
=82	=82	=82	=82	=82	=82	=82	=82
0.C	-cto:	[0.c	Cru-	1G	-cto:	0.r	.
.	.	.	.	1r	.	.	.
.	.	.	.	1g	et	.	.
=83	=83	=83	=83	=83	=83	=83	=83
0.F	et	0.c]	.	2f\	ho-	0.r	.
.	.	.	.	2g\	.	.	.
.	.	.	.	1.a	-mo	.	.
.	.	.	.	2g\	.	.	.
=84	=84	=84	=84	=84	=84	=84	=84
0.G	ho-	0.B	-ci-	2e\	fac-	0.r	.
.	.	.	.	2d\	.	.	.
.	.	.	.	2g\	.	.	.
.	.	.	.	2f\	.	.	.
.	.	.	.	2.e\	-tus	.	.
.	.	.	.	4d\	.	.	.
=85	=85	=85	=85	=85	=85	=85	=85
0.F	-mo	[0.c	-fi-	0.f	est.	1.a	Cru-
.	.	.	.	.	.	2b\	-ci-
.	.	.	.	.	.	[1cc	-fi-
=86	=86	=86	=86	=86	=86	=86	=86
0.A	fac-	0.c]	.	0.r	.	2cc\]	.
.	.	.	.	.	.	1a	-xus
.	.	.	.	.	.	2g/	e-
.	.	.	.	.	.	2.f/	-ti-
.	.	.	.	.	.	4e/	.
=87	=87	=87	=87	=87	=87	=87	=87
0.G	-tus	0.d	.	0.r	.	2g/	-am
.	.	.	.	.	.	2a/	.
.	.	.	.	.	.	1.b	.
.	.	.	.	.	.	2a/	pro
=88	=88	=88	=88	=88	=88	=88	=88
[0.C	est.	0.e	-xus	1r	.	2cc\	no-
.	.	.	.	.	.	2b\	.
.	.	.	.	0c	sub	0g	-bis
=89	=89	=89	=89	=89	=89	=89	=89
0.C_	.	0.c	.	0g	Pon-	1e	sub
.	.	.	.	.	.	1e	Pon-
.	.	.	.	1g	-ti-	2e/	-ti-
.	.	.	.	.	.	2f/	.
=90	=90	=90	=90	=90	=90	=90	=90
0.C]	.	0.r	.	0.c	-o	1g	-o
.	.	.	.	.	.	2a/	Pi-
.	.	.	.	.	.	2g/	.
.	.	.	.	.	.	1cc	-la-
=91	=91	=91	=91	=91	=91	=91	=91
0.r	.	1.g	et-	2.G/	Pi-	2.b\	.
.	.	.	.	4A/	.	4cc\	.
.	.	.	.	2B\	-la-	2dd\	.
.	.	1.g	-i-	2c\	.	2ee\	.
.	.	.	.	1G	-to,	2dd\	-to,
.	.	.	.	.	.	2b\	.
=92	=92	=92	=92	=92	=92	=92	=92
0.r	.	1.e	-am...	2.c\	pas-	2r	.
.	.	.	.	.	.	1ee	pas-
.	.	.	.	4B\	.	.	.
.	.	.	.	2c\	.	.	.
.	.	1.f	.	2d\	.	2dd\	.
.	.	.	.	1A	-sus	1cc	-sus
=93	=93	=93	=93	=93	=93	=93	=93
0.r	.	0.g	.	0G	et	2b\	et
.	.	.	.	.	.	2cc\	.
.	.	.	.	.	.	1dd	.
.	.	.	.	1G	se-	1b	se-
=94	=94	=94	=94	=94	=94	=94	=94
0.r	.	0.r	.	1c	-pul-	2g/	-pul-
.	.	.	.	.	.	2cc\	.
.	.	.	.	1e	.	2b\	.
.	.	.	.	.	.	2g/	.
.	.	.	.	1f	-tus	2.a/	-tus
.	.	.	.	.	.	4g/	.
=95	=95	=95	=95	=95	=95	=95	=95
0.r	.	0.c	Et	0g	est.	1e	est.
.	.	.	.	.	.	1r	.
.	.	.	.	1e	Et	1cc	Et
=96	=96	=96	=96	=96	=96	=96	=96
0.r	.	1.d	re-	2d\	re-	2b\	re-
.	.	.	.	2.f\	.	1.a	.
.	.	.	.	4e\	.	.	.
.	.	1.e	-sur-	[1.c	-sur-	.	.
.	.	.	.	.	.	1g	-sur-
=97	=97	=97	=97	=97	=97	=97	=97
0.r	.	1.f	-re-	2c\]	.	2cc\	-re-
.	.	.	.	1d	-re-	2a/	.
.	.	.	.	.	.	2b\	.
.	.	1.e	-xit	1c	-xit	1cc	-xit
.	.	.	.	[2g\	ter-	[2cc\	ter-
=98	=98	=98	=98	=98	=98	=98	=98
0.r	.	1.c	ter-	2g\]	.	4cc\]	.
.	.	.	.	.	.	4b\	.
.	.	.	.	1.e	-ti-	4a/	.
.	.	.	.	.	.	4g/	.
.	.	.	.	.	.	1g	.
.	.	1.G	-ti-	.	.	.	.
.	.	.	.	[1d	-a	1g	-ti-
=99	=99	=99	=99	=99	=99	=99	=99
0.r	.	1.A	-a	2d\]	.	2f/	-a
.	.	.	.	1c	di-	2.e/	.
.	.	.	.	.	.	4f/	.
.	.	1.B	di-	2G/	.	2.g/	.
.	.	.	.	1G	.	.	.
.	.	.	.	.	.	4f/	.
.	.	.	.	.	.	2d/	.
=100	=100	=100	=100	=100	=100	=100	=100
0.C	se-	1.c	-e	0.G	-e,	2.e/	di-
.	.	.	.	.	.	4c/	.
.	.	.	.	.	.	1c	-e,
.	.	[1.e	se-	.	.	.	.
.	.	.	.	.	.	1r	.
=101	=101	=101	=101	=101	=101	=101	=101
0c	-cun-	1.e]	.	0.r	.	0g	se-
.	.	1.c	.	.	.	.	.
1A	.	.	.	.	.	1a	.
=102	=102	=102	=102	=102	=102	=102	=102
1G	.	1.g	-cun-	1d	se-	1b	-cun-
0c	.	.	.	2.e\	-cun-	1g	.
.	.	1.e	.	.	.	.	.
.	.	.	.	4f\	.	.	.
.	.	.	.	1g	.	1cc	.
=103	=103	=103	=103	=103	=103	=103	=103
1A	-dum	1.c	-dum	0a	-dum	0cc	-dum
2F\	scrip-	.	.	.	.	.	.
2G\	.	1.r	.	.	.	.	.
1A	.	.	.	1a	scrip-	1cc	scrip-
=104	=104	=104	=104	=104	=104	=104	=104
1G	-tu-	1.g	scrip-	1d	-tu-	1b	-tu-
0C	-ras.	.	.	1e	.	2.cc\	.
.	.	1.e	.	.	.	.	.
.	.	.	.	.	.	4dd\	.
.	.	.	.	1c	.	[1ee	.
=105	=105	=105	=105	=105	=105	=105	=105
0.r	.	1.g	-tu-	2c\	-ras.	2ee\]	.
.	.	.	.	2B\	.	2dd\	.
.	.	.	.	2c\	.	2cc\	.
.	.	1.f	.	1d	.	2b\	.
.	.	.	.	.	.	1a	-ras.
.	.	.	.	2d\	Et	.	.
=106	=106	=106	=106	=106	=106	=106	=106
1.G	Et	0.d	.	0B	.	0g	Et
2A\	.	.	.	.	.	.	.
1B	a-	.	.	1G	a-	1g	a-
=107	=107	=107	=107	=107	=107	=107	=107
1c	-scen-	0.c	-ras....	1g	-scen-	0e	-scen-
1A	.	.	.	0a	-dit	.	.
1F	-dit	.	.	.	.	1cc	-dit
=108	=108	=108	=108	=108	=108	=108	=108
1A	in	1.r	.	1f	in	1cc	in
0G	ce-	.	.	0g	ce-	1.b	ce-
.	.	1.d	se-	.	.	.	.
.	.	.	.	.	.	2a/	.
=109	=109	=109	=109	=109	=109	=109	=109
1A	-lum	1.c	-det	1e	-lum,	0.cc	-lum,
0F	.	.	.	2.f\	se-	.	.
.	.	[1.A	ad	.	.	.	.
.	.	.	.	4e\	.	.	.
.	.	.	.	2c\	.	.	.
.	.	.	.	2f\	.	.	.
=110	=110	=110	=110	=110	=110	=110	=110
1c	se-	1.A]	.	2e\	.	2r	.
.	.	.	.	2.a\	.	1cc	se-
1F	-det	.	.	.	.	.	.
.	.	.	.	4g\	.	.	.
.	.	1.B	.	2f\	.	2dd\	.
1G	ad	.	.	2.e\	.	1b	.
.	.	.	.	4d\	.	.	.
=111	=111	=111	=111	=111	=111	=111	=111
0F	dex-	1.c	dex-	0f	-det	0a	.
.	.	1.A	-te-	.	.	.	.
1F	-te-	.	.	1c	.	1f	.
=112	=112	=112	=112	=112	=112	=112	=112
[0.C	-ram,	1.G	-ram	1r	.	0.e	-det
.	.	.	.	1r	.	.	.
.	.	[1.c	.	.	.	.	.
.	.	.	.	1G	ad	.	.
=113	=113	=113	=113	=113	=113	=113	=113
0.C]	.	1.c]	.	1G	dex-	1r	.
.	.	.	.	0c	.	1r	.
.	.	1.e	pa-	.	.	.	.
.	.	.	.	.	.	1g	ad
=114	=114	=114	=114	=114	=114	=114	=114
0.D	ad	0.d	.	1A	.	1f	dex-
.	.	.	.	1A	-te-	2d/	.
.	.	.	.	.	.	1f	.
.	.	.	.	1B-	-ram	.	.
.	.	.	.	.	.	2g/	.
=115	=115	=115	=115	=115	=115	=115	=115
0F	dex-	[0.cl	-tris.	0A	pa-	2a/	.
.	.	.	.	.	.	2b\	.
.	.	.	.	.	.	0cc	.
1A	-te-	.	.	1F	.	.	.
=116	=116	=116	=116	=116	=116	=116	=116
1A	-ram	0.c_	.	1F	.	1.cc	-te-
0F	.	.	.	0A	-tris,	.	.
.	.	.	.	.	.	1a	-ram
.	.	.	.	.	.	2f/	.
=117	=117	=117	=117	=117	=117	=117	=117
1F	pa-	0.c_	.	1A	pa-	1.f	pa-
0C	.	.	.	0G	.	.	.
.	.	.	.	.	.	2e/	.
.	.	.	.	.	.	2e/	.
.	.	.	.	.	.	2d/	.
=118	=118	=118	=118	=118	=118	=118	=118
1r	.	0.c]	.	1F	.	0.fl	-tris.
0Fl	-tris.	.	.	2A/	.	.	.
.	.	.	.	2B\	.	.	.
.	.	.	.	1cl	-tris.	.	.
!!LO:LB:i:g=z
=119||	=119||	=119||	=119||	=119||	=119||	=119||	=119||
*>B	*>B	*>B	*>B	*>B	*>B	*>B	*>B
*clefF4	*	*clefGv2	*	*clefGv2	*	*clefG2	*
*k[]	*	*k[]	*	*k[]	*	*k[]	*
*M2/1	*	*M2/1	*	*M2/1	*	*M2/1	*
*met(C)	*	*met(C)	*	*met(C)	*	*met(C)	*
*MM420	*MM420	*MM420	*MM420	*MM420	*MM420	*MM420	*MM420
!!section: Et iterum
!!!OMD: Et iterum
0r	.	0r	.	0F	Et	0f	Et
=120.	=120.	=120.	=120.	=120.	=120.	=120.	=120.
0r	.	0r	.	1F	i-	1.a	i-
.	.	.	.	1F	-te-	.	.
.	.	.	.	.	.	2b\	-te-
=121.	=121.	=121.	=121.	=121.	=121.	=121.	=121.
0r	.	0r	.	0F	-rum	1cc	-rum
.	.	.	.	.	.	1cc	ven-
=122	=122	=122	=122	=122	=122	=122	=122
0r	.	0r	.	1A	ven-	1cc	-tu-
.	.	.	.	1B	.	2dd\	.
.	.	.	.	.	.	2cc\	.
=123.	=123.	=123.	=123.	=123.	=123.	=123.	=123.
0r	.	0r	.	1.c	-tu-	1a	-rus
.	.	.	.	.	.	[1g	est
.	.	.	.	2B\	-rus	.	.
=124.	=124.	=124.	=124.	=124.	=124.	=124.	=124.
0r	.	0r	.	1c	est	1g]	.
.	.	.	.	1e	cum	1cc	cum
=125	=125	=125	=125	=125	=125	=125	=125
0r	.	0r	.	1.d	glo-	1b	glo-
.	.	.	.	.	.	[1a	.
.	.	.	.	2c\	-ri-	.	.
=126.	=126.	=126.	=126.	=126.	=126.	=126.	=126.
0r	.	0r	.	1f	-a	2a/]	.
.	.	.	.	.	.	2g/	-ri-
.	.	.	.	1e	.	1g	-a,
=127.	=127.	=127.	=127.	=127.	=127.	=127.	=127.
0r	.	0r	.	1d	iu-	2a/	iu-
.	.	.	.	.	.	2g/	.
.	.	.	.	[1g	-di-	1e	-di-
=128	=128	=128	=128	=128	=128	=128	=128
0r	.	0r	.	2g\]	.	1.d	-ca-
.	.	.	.	1f	-ca-	.	.
.	.	.	.	2e\	.	2c/	.
=129.	=129.	=129.	=129.	=129.	=129.	=129.	=129.
0r	.	0r	.	1g	-re	1c	-re
.	.	.	.	2e\	vi-	[1cc	vi-
.	.	.	.	2c\	.	.	.
=130.	=130.	=130.	=130.	=130.	=130.	=130.	=130.
0r	.	0r	.	0d	.	2cc\]	.
.	.	.	.	.	.	2b\	.
.	.	.	.	.	.	2b\	.
.	.	.	.	.	.	2a/	.
=131	=131	=131	=131	=131	=131	=131	=131
0r	.	0r	.	0c	-vos,	1cc	-vos,
.	.	.	.	.	.	1r	.
=132.	=132.	=132.	=132.	=132.	=132.	=132.	=132.
0r	.	0r	.	1c	vi-	2a/	vi-
.	.	.	.	.	.	2g/	.
.	.	.	.	2B\	.	2.g/	-vos
.	.	.	.	[2c\	-vos	.	.
.	.	.	.	.	.	4f/	.
=133.	=133.	=133.	=133.	=133.	=133.	=133.	=133.
0r	.	0r	.	2c\]	.	2e/	.
.	.	.	.	2d\	.	1d	et
.	.	.	.	1B	et	.	.
.	.	.	.	.	.	[2d/	mor-
=134	=134	=134	=134	=134	=134	=134	=134
0r	.	0r	.	1G	mor-	2d/]	.
.	.	.	.	.	.	2.g/	.
.	.	.	.	1B	.	.	.
.	.	.	.	.	.	4f/	.
.	.	.	.	.	.	2g/	.
=135.	=135.	=135.	=135.	=135.	=135.	=135.	=135.
0r	.	0r	.	0A	-tu-	2a/	.
.	.	.	.	.	.	2e/	.
.	.	.	.	.	.	2.f#i/	-tu-
.	.	.	.	.	.	4e/	.
=136.	=136.	=136.	=136.	=136.	=136.	=136.	=136.
0r	.	0r	.	1G	-os,	0g	-os,
.	.	.	.	1r	.	.	.
=137	=137	=137	=137	=137	=137	=137	=137
[0C	Cu-	[0c	Cu-	1.e	cu-	0r	.
.	.	.	.	2f\	.	.	.
=138.	=138.	=138.	=138.	=138.	=138.	=138.	=138.
0C]	.	0c]	.	1.g	-ius	1cc	cu-
.	.	.	.	.	.	1cc	-ius
.	.	.	.	[2a\	re-	.	.
=139.	=139.	=139.	=139.	=139.	=139.	=139.	=139.
2F\	-ius	0c	-ius	2a\]	.	2a/	re-
2G\	.	.	.	2g\	.	2b\	.
1A	re-	.	.	2e\	.	1cc	.
.	.	.	.	2f\	.	.	.
=140	=140	=140	=140	=140	=140	=140	=140
[0G	-gni	[0B	re-	1g	-gni	0dd	-gni
.	.	.	.	[1d	non	.	.
=141.	=141.	=141.	=141.	=141.	=141.	=141.	=141.
0G]	.	0B]	.	1d]	.	1g	non
.	.	.	.	[1d	e-	1g	e-
=142.	=142.	=142.	=142.	=142.	=142.	=142.	=142.
1D	non	0A	-gni	1d]	.	2f/	-rit
.	.	.	.	.	.	2g/	.
[1F	e-	.	.	1c	-rit	[1a	fi-
=143	=143	=143	=143	=143	=143	=143	=143
2F\]	.	1c	non	1A	fi-	2a/]	.
2E\	.	.	.	.	.	2g/	.
1D	-rit	1d	.	1B	.	2f/	.
.	.	.	.	.	.	2e/	.
=144.	=144.	=144.	=144.	=144.	=144.	=144.	=144.
0C	fi-	0e	e-	1c	.	0g	-nis.
.	.	.	.	2G/	.	.	.
.	.	.	.	2c\	.	.	.
=145.	=145.	=145.	=145.	=145.	=145.	=145.	=145.
0D	.	0f	-rit	2A/	.	0r	.
.	.	.	.	1B	.	.	.
.	.	.	.	2A/	.	.	.
=146	=146	=146	=146	=146	=146	=146	=146
0C	-nis.	0e	fi-	0c	-nis.	0g	Et
=147.	=147.	=147.	=147.	=147.	=147.	=147.	=147.
0G	.	[0d	-nis.	0r	.	2b\	in
.	.	.	.	.	.	2cc\	.
.	.	.	.	.	.	[1dd	spi-
=148.	=148.	=148.	=148.	=148.	=148.	=148.	=148.
0r	.	0d]	.	0f	Et	2dd\]	.
.	.	.	.	.	.	2a/	.
.	.	.	.	.	.	1b	-ri-
=149	=149	=149	=149	=149	=149	=149	=149
0A	Et	0c	Et	1.e	in	2cc\	-tum
.	.	.	.	.	.	2dd\	.
.	.	.	.	.	.	1ee	.
.	.	.	.	2f\	.	.	.
=150.	=150.	=150.	=150.	=150.	=150.	=150.	=150.
1B	in	1G	in	1g	spi-	1dd	san-
1c	.	[1A	spi-	1e	-ri-	[1cc	-ctum
=151.	=151.	=151.	=151.	=151.	=151.	=151.	=151.
2A\	spi-	1A]	.	2c\	-tum	1cc]	.
2F\	.	.	.	2f\	san-	.	.
1G	-ri-	1B	-ri-	2d\	.	1b	do-
.	.	.	.	2e\	.	.	.
=152	=152	=152	=152	=152	=152	=152	=152
0F	-tum	[0c	-tum...	0f	-ctum,	0a	-mi-
=153.	=153.	=153.	=153.	=153.	=153.	=153.	=153.
[0C	.	0c]	.	0e	do-	0g	-num,
=154.	=154.	=154.	=154.	=154.	=154.	=154.	=154.
0C]	.	0r	.	0c	-mi-	0e	et
=155	=155	=155	=155	=155	=155	=155	=155
0r	.	[0g	et	1c	-num,	1.e	vi-
.	.	.	.	1c	et	.	.
.	.	.	.	.	.	2c/	-vi-
=156.	=156.	=156.	=156.	=156.	=156.	=156.	=156.
0r	.	0g]	.	1G	vi-	1d	-fi-
.	.	.	.	2c\	-vi-	1e	-can-
.	.	.	.	2d\	-fi-	.	.
=157.	=157.	=157.	=157.	=157.	=157.	=157.	=157.
0r	.	0g	vi-	1.e	-can-	0c	-tem,
.	.	.	.	2f\	.	.	.
=158	=158	=158	=158	=158	=158	=158	=158
0r	.	[0c	-vi-	1g	-tem,	2r	.
.	.	.	.	.	.	1cc	qui
.	.	.	.	2g\	qui	.	.
.	.	.	.	[2a\	ex	2a/	ex
=159.	=159.	=159.	=159.	=159.	=159.	=159.	=159.
0r	.	0c]	.	2a\]	.	2cc\	pa-
.	.	.	.	2g\	.	2b\	.
.	.	.	.	1e	pa-	1g	-tre
=160.	=160.	=160.	=160.	=160.	=160.	=160.	=160.
0r	.	0B	-fi-	1d	-tre	1r	.
.	.	.	.	1G	.	1dd	fi-
=161	=161	=161	=161	=161	=161	=161	=161
0r	.	1c	-can-	2r	.	1ee	-li-
.	.	.	.	2g\	fi-	.	.
.	.	1d	.	2.f\	-li-	2dd\	-o-
.	.	.	.	.	.	[2b\	-que
.	.	.	.	4e\	.	.	.
=162.	=162.	=162.	=162.	=162.	=162.	=162.	=162.
0r	.	1e	.	1g	-o-	2b\]	.
.	.	.	.	.	.	1cc	pro-
.	.	1f	.	1a	-que	.	.
.	.	.	.	.	.	[2dd\	-ce-
=163.	=163.	=163.	=163.	=163.	=163.	=163.	=163.
0r	.	0d	.	2f\	pro-	2dd\]	.
.	.	.	.	1f	-ce-	2cc\	.
.	.	.	.	.	.	2a/	.
.	.	.	.	2e\	.	2b\	.
=164	=164	=164	=164	=164	=164	=164	=164
0C	Qui	[0c	-tem...	0g	-dit.	[0cc	-dit.
=165.	=165.	=165.	=165.	=165.	=165.	=165.	=165.
0F	cum	0c]	.	0r	.	0cc_	.
=166.	=166.	=166.	=166.	=166.	=166.	=166.	=166.
2A\	pa-	0r	.	0e	Qui	0cc]	.
2B\	.	.	.	.	.	.	.
1c	.	.	.	.	.	.	.
=167	=167	=167	=167	=167	=167	=167	=167
0F	-tre	0a	Qui	1.f	cum	0r	.
.	.	.	.	2e\	.	.	.
=168.	=168.	=168.	=168.	=168.	=168.	=168.	=168.
1r	.	1a	cum	2d\	pa-	1.f	Qui
.	.	.	.	2c\	.	.	.
1F	et	[1a	pa-	1c	.	.	.
.	.	.	.	.	.	2e/	.
=169.	=169.	=169.	=169.	=169.	=169.	=169.	=169.
0F	fi-	1a]	.	2B\	.	2d/	.
.	.	.	.	1A	.	2c/	.
.	.	1a	-tre	.	.	1d	.
.	.	.	.	2G/	.	.	.
=170	=170	=170	=170	=170	=170	=170	=170
0E	-li-	[0g	.	1B	-tre,	0e	cum
.	.	.	.	1B	et	.	.
=171.	=171.	=171.	=171.	=171.	=171.	=171.	=171.
0C	-o	0g]	.	2c\	fi-	0e	pa-
.	.	.	.	2B\	.	.	.
.	.	.	.	1G	-li-	.	.
=172.	=172.	=172.	=172.	=172.	=172.	=172.	=172.
0F	.	1r	.	1A	-o,	1c	-tre
.	.	1c	et	1A	et	1cc	et
=173	=173	=173	=173	=173	=173	=173	=173
1r	.	1d	fi-	2G/	fi-	1.b	fi-
.	.	.	.	2A/	.	.	.
1G	si-	1e	.	1B	-li-	.	.
.	.	.	.	.	.	2g/	.
=174.	=174.	=174.	=174.	=174.	=174.	=174.	=174.
0F	-mul	0f	.	0c	-o,	2a/	.
.	.	.	.	.	.	2b\	.
.	.	.	.	.	.	2cc\	.
.	.	.	.	.	.	[2a/	.
=175.	=175.	=175.	=175.	=175.	=175.	=175.	=175.
0B-	ad-	0d	-li-	1r	.	2a/]	.
.	.	.	.	.	.	2g/	.
.	.	.	.	1d	qui	2g/	-li-
.	.	.	.	.	.	2f/	.
=176	=176	=176	=176	=176	=176	=176	=176
0A	-o-	0c	-o...	1e	cum	1a	-o
.	.	.	.	1e	pa-	[1a	si-
=177.	=177.	=177.	=177.	=177.	=177.	=177.	=177.
1F	-ra-	0r	.	1f	-tre	2a/]	.
.	.	.	.	.	.	2b\	.
1A	.	.	.	1f	et	1cc	-mul
=178.	=178.	=178.	=178.	=178.	=178.	=178.	=178.
0G	.	0d	si-	1g	fi-	1.b	ad-
.	.	.	.	1g	-li-	.	.
.	.	.	.	.	.	2g/	-o-
=179	=179	=179	=179	=179	=179	=179	=179
[0C	-tur,	0c	-mul	0e	-o	0g	-ra-
=180.	=180.	=180.	=180.	=180.	=180.	=180.	=180.
0C]	.	0G	.	1r	.	1e	-tur,
.	.	.	.	1e	si-	1c	et
=181.	=181.	=181.	=181.	=181.	=181.	=181.	=181.
0r	.	1g	ad-	0c	-mul	1.e	con-
.	.	1g	-o-	.	.	.	.
.	.	.	.	.	.	2f/	.
=182	=182	=182	=182	=182	=182	=182	=182
1.c	et	1g	-ra-	0e	ad-	1g	-glo-
.	.	1g	-tur...	.	.	1cc	-ri-
2B\	.	.	.	.	.	.	.
=183.	=183.	=183.	=183.	=183.	=183.	=183.	=183.
1.A	con-	0c	.	1.e	-o-	1.cc	-fi-
4G\	.	.	.	2d\	.	4b\	.
4F\	.	.	.	.	.	4a/	.
=184.	=184.	=184.	=184.	=184.	=184.	=184.	=184.
1E	.	1r	.	1e	-ra-	1g	.
1D	-glo-	1d	...fi-	[1A	.	2f/	-ca-
.	.	.	.	.	.	2g/	.
=185	=185	=185	=185	=185	=185	=185	=185
2F\	-ri-	0c	-ca-	1A]	.	2a/	.
2E\	.	.	.	.	.	2g/	.
1C	-fi-	.	.	1G	-tur,	1e	.
=186.	=186.	=186.	=186.	=186.	=186.	=186.	=186.
0G	-ca-	0B-	.	1r	.	2d/	.
.	.	.	.	.	.	1g	.
.	.	.	.	[1d	et	.	.
.	.	.	.	.	.	2g/	.
=187.	=187.	=187.	=187.	=187.	=187.	=187.	=187.
0D	-tur,	0A	.	1d]	.	2a/	.
.	.	.	.	.	.	1f#i	.
.	.	.	.	1d	con-	.	.
.	.	.	.	.	.	2e/	.
=188	=188	=188	=188	=188	=188	=188	=188
1r	.	0G	-tur.	1.d	-glo-	0g	-tur.
[1G	et	.	.	.	.	.	.
.	.	.	.	2e\	.	.	.
=189.	=189.	=189.	=189.	=189.	=189.	=189.	=189.
1G]	.	0r	.	2d\	.	0r	.
.	.	.	.	1B	.	.	.
1G	con-	.	.	.	.	.	.
.	.	.	.	[2d\	.	.	.
=190.	=190.	=190.	=190.	=190.	=190.	=190.	=190.
1F	-glo-	0r	.	4d\]	.	0r	.
.	.	.	.	4c\	.	.	.
.	.	.	.	2A/	.	.	.
1G	-ri-	.	.	2B\	.	.	.
.	.	.	.	[2G/	.	.	.
=191	=191	=191	=191	=191	=191	=191	=191
2C/	-fi-	0r	.	2G/]	.	0r	.
2E\	.	.	.	1c	-ri-	.	.
1D	-ca-	.	.	.	.	.	.
.	.	.	.	2B\	-fi-	.	.
=192.	=192.	=192.	=192.	=192.	=192.	=192.	=192.
0C	-tur.	0r	.	0c	-ca-	0r	.
=193.	=193.	=193.	=193.	=193.	=193.	=193.	=193.
1c	Qui	0r	.	2A/	.	0r	.
.	.	.	.	2F/	.	.	.
2c\	lo-	.	.	[1F	-tur.	.	.
[2A\	-cu-	.	.	.	.	.	.
=194	=194	=194	=194	=194	=194	=194	=194
2A\]	.	0r	.	1F]	.	0r	.
2F\	.	.	.	.	.	.	.
1G	-tus	.	.	1r	.	.	.
=195.	=195.	=195.	=195.	=195.	=195.	=195.	=195.
0F	est,	0r	.	1c	Qui	0r	.
.	.	.	.	2c\	lo-	.	.
.	.	.	.	[2A/	-cu-	.	.
=196.	=196.	=196.	=196.	=196.	=196.	=196.	=196.
1r	.	0r	.	2A/]	.	0r	.
.	.	.	.	2F/	.	.	.
1E	qui	.	.	1G	-tus	.	.
=197	=197	=197	=197	=197	=197	=197	=197
1F	lo-	0r	.	0F	est,	0r	.
2.A\	-cu-	.	.	.	.	.	.
4B\	.	.	.	.	.	.	.
=198.	=198.	=198.	=198.	=198.	=198.	=198.	=198.
1c	.	0r	.	2.A/	qui	0r	.
.	.	.	.	4B\	.	.	.
2C/	.	.	.	2c\	.	.	.
[2F\	.	.	.	2d\	lo-	.	.
=199.	=199.	=199.	=199.	=199.	=199.	=199.	=199.
2F\]	.	0r	.	2c\	-cu-	0r	.
2A\	.	.	.	1f	.	.	.
1G	-tus	.	.	.	.	.	.
.	.	.	.	2e\	-tus	.	.
=200	=200	=200	=200	=200	=200	=200	=200
0F	est	[0c	Qui	0f	est	0a	Qui
=201.	=201.	=201.	=201.	=201.	=201.	=201.	=201.
1C	per	0c]	.	0e	per	1.g	lo-
2E\	pro-	.	.	.	.	.	.
2F\	.	.	.	.	.	2a/	.
=202.	=202.	=202.	=202.	=202.	=202.	=202.	=202.
0G	-phe-	0B	lo-	1d	pro-	2b\	-cu-
.	.	.	.	.	.	2cc\	.
.	.	.	.	[1g	-phe-	1dd	-tus
=203	=203	=203	=203	=203	=203	=203	=203
0C	-tas,	[0c	-cu-	1g]	.	1ee	est
.	.	.	.	1e	.	2cc\	per
.	.	.	.	.	.	2b\	.
=204.	=204.	=204.	=204.	=204.	=204.	=204.	=204.
1F	per	0c]	.	1c	.	1a	pro-
1E	pro-	.	.	1G	.	1g	.
=205.	=205.	=205.	=205.	=205.	=205.	=205.	=205.
0D	-phe-	0d	-tus	1A	.	2f/	-phe-
.	.	.	.	.	.	1f	.
.	.	.	.	1B	.	.	.
.	.	.	.	.	.	2e/	.
=206	=206	=206	=206	=206	=206	=206	=206
[0C	-tas.	0e	est	1.c	-tas,	0g	-tas,
.	.	.	.	2B\	.	.	.
=207.	=207.	=207.	=207.	=207.	=207.	=207.	=207.
0C_	.	0c	.	2A/	.	0e	.
.	.	.	.	2G/	.	.	.
.	.	.	.	[1G	.	.	.
=208.	=208.	=208.	=208.	=208.	=208.	=208.	=208.
0C]	.	0r	.	1G]	.	2c/	per
.	.	.	.	.	.	2d/	.
.	.	.	.	1c	per	[1e	.
=209	=209	=209	=209	=209	=209	=209	=209
0r	.	1g	per	1c	pro-	2e/]	.
.	.	.	.	.	.	2c/	pro-
.	.	1g	pro-	2B\	.	2d/	.
.	.	.	.	[2c\	.	2e/	.
=210.	=210.	=210.	=210.	=210.	=210.	=210.	=210.
0r	.	1e	-phe-	2c\]	.	2c/	.
.	.	.	.	2G/	.	2B/	.
.	.	1f	.	1A	.	1c	-phe-
=211.	=211.	=211.	=211.	=211.	=211.	=211.	=211.
0r	.	0g	-tas.	0G	-phe-	1d	.
.	.	.	.	.	.	1B	.
=212	=212	=212	=212	=212	=212	=212	=212
0C	Et	0r	.	0G	-tas.	0c	-tas.
=213.	=213.	=213.	=213.	=213.	=213.	=213.	=213.
1F	u-	0c	Et	1A	.	1r	.
1A	.	.	.	1F	.	1cc	Et
=214.	=214.	=214.	=214.	=214.	=214.	=214.	=214.
0G	-nam	1d	u-	0r	.	0b	u-
.	.	1e	-nam	.	.	.	.
=215	=215	=215	=215	=215	=215	=215	=215
1F	san-	1f	san-	0r	.	1a	-nam
2G\	.	1e	.	.	.	2g/	san-
[2A\	.	.	.	.	.	2f/	.
=216.	=216.	=216.	=216.	=216.	=216.	=216.	=216.
2A\]	.	1c	.	0r	.	1e	.
2c\	.	.	.	.	.	.	.
1B	.	1G	.	.	.	1d	.
=217.	=217.	=217.	=217.	=217.	=217.	=217.	=217.
2c\	-ctam,	1A	.	0r	.	2c/	-ctam,
2A\	.	.	.	.	.	1f	.
1G	.	1B	.	.	.	.	.
.	.	.	.	.	.	2e/	.
=218	=218	=218	=218	=218	=218	=218	=218
1F	ca-	1c	-ctam,	0r	.	2f/	.
.	.	.	.	.	.	2a/	.
[1c	-tho-	[1e	.	.	.	1g	.
=219.	=219.	=219.	=219.	=219.	=219.	=219.	=219.
2c\]	.	1e]	.	1r	.	1cc	ca-
2B\	.	.	.	.	.	.	.
1A	-li-	1c	ca-	1A	Et	1cc	-tho-
=220.	=220.	=220.	=220.	=220.	=220.	=220.	=220.
1G	-cam	1g	-tho-	1B	u-	1b	-li-
[1C	.	1e	-li-	1c	.	[1g	-cam
=221	=221	=221	=221	=221	=221	=221	=221
0C]	.	1c	-cam	1G	-nam	1g]	.
.	.	1r	.	1g	san-	1e	et
=222.	=222.	=222.	=222.	=222.	=222.	=222.	=222.
0C	et	1g	et	1e	.	1c	a-
.	.	1e	a-	1c	.	[1g	.
=223.	=223.	=223.	=223.	=223.	=223.	=223.	=223.
1E	a-	1g	-po-	1G	-ctam,	1g]	.
1F	-po-	1f	-sto-	1r	.	1a	-po-
=224	=224	=224	=224	=224	=224	=224	=224
0G	-sto-	0d	-li-	0g	ca-	1.b	-sto-
.	.	.	.	.	.	2a/	.
=225.	=225.	=225.	=225.	=225.	=225.	=225.	=225.
0C	-li-	0c	-cam	2e\	-tho-	2cc\	.
.	.	.	.	2f\	.	2dd\	.
.	.	.	.	[1g	.	1ee	.
=226.	=226.	=226.	=226.	=226.	=226.	=226.	=226.
0G	-cam	1r	.	1g]	.	2dd\	.
.	.	.	.	.	.	1b	.
.	.	1d	ec-	1g	-li-	.	.
.	.	.	.	.	.	2a/	-li-
=227	=227	=227	=227	=227	=227	=227	=227
1.A	ec-	1c	-cle-	1e	-cam	0cc	-cam
.	.	[1A	.	[1c	.	.	.
[2F\	-cle-	.	.	.	.	.	.
=228.	=228.	=228.	=228.	=228.	=228.	=228.	=228.
2F\]	.	1A]	.	1c]	.	2a/	.
2E\	.	.	.	.	.	2g/	.
1D	-si-	1B	.	1d	et	1f	.
=229.	=229.	=229.	=229.	=229.	=229.	=229.	=229.
1C	-am,	1c	.	1G	a-	1e	.
1F	.	1A	.	2A/	-po-	2r	.
.	.	.	.	[2c\	-sto-	2f/	ec-
=230	=230	=230	=230	=230	=230	=230	=230
0C	.	1G	.	2c\]	.	2e/	-cle-
.	.	.	.	2B\	.	1g	.
.	.	[1c	.	1G	-li-	.	.
.	.	.	.	.	.	2a/	.
=231.	=231.	=231.	=231.	=231.	=231.	=231.	=231.
0r	.	1c]	.	2A/	-cam	2cc\	.
.	.	.	.	2B\	.	2b\	.
.	.	1e	.	1c	.	1g	.
=232.	=232.	=232.	=232.	=232.	=232.	=232.	=232.
0D	ec-	0d	-si-	0A	ec-	2f/	.
.	.	.	.	.	.	2g/	.
.	.	.	.	.	.	[1a	.
=233	=233	=233	=233	=233	=233	=233	=233
1.F	-cle-	[0cl	-am.	0A	-cle-	2a/]	.
.	.	.	.	.	.	2b-i\	.
.	.	.	.	.	.	2a/	.
2E\	.	.	.	.	.	4g/	.
.	.	.	.	.	.	4f/	.
=234.	=234.	=234.	=234.	=234.	=234.	=234.	=234.
1C	-si-	0c_	.	1G	.	1e	.
1F	.	.	.	1A	.	2c/	.
.	.	.	.	.	.	[2f/	.
=235.	=235.	=235.	=235.	=235.	=235.	=235.	=235.
0A	-am.	0c_	.	0F	-si-	2f/]	.
.	.	.	.	.	.	1cc	.
.	.	.	.	.	.	2a/	-si-
=236	=236	=236	=236	=236	=236	=236	=236
0Fl	.	0c]	.	0fl	-am.	0al	-am.
!!LO:LB:i:g=z
=237||	=237||	=237||	=237||	=237||	=237||	=237||	=237||
*>C	*>C	*>C	*>C	*>C	*>C	*>C	*>C
*clefF4	*	*clefGv2	*	*clefGv2	*	*clefG2	*
*k[]	*	*k[]	*	*k[]	*	*k[]	*
*M3/1	*	*M3/1	*	*M3/1	*	*M3/1	*
*met(O)	*	*met(O)	*	*met(O)	*	*met(O)	*
*MM384	*MM384	*MM384	*MM384	*MM384	*MM384	*MM384	*MM384
!!section: Confiteor unum baptisma
!!!OMD: Confiteor unum baptisma
0.r	.	0.r	.	0.F	Con-	1.f	Con-
.	.	.	.	.	.	2g/	.
.	.	.	.	.	.	1a	-fi-
=238	=238	=238	=238	=238	=238	=238	=238
0.r	.	0.r	.	1.F	-fi-	1f	-te-
.	.	.	.	.	.	1.cc	-or
.	.	.	.	2G/	.	.	.
.	.	.	.	1A	-te-	.	.
.	.	.	.	.	.	2b\	.
=239	=239	=239	=239	=239	=239	=239	=239
0.r	.	0.r	.	1F	-or	1a	.
.	.	.	.	1.c	u-	1g	u-
.	.	.	.	.	.	[1cc	-num
.	.	.	.	2B\	.	.	.
=240	=240	=240	=240	=240	=240	=240	=240
0.r	.	0.r	.	1A	-num	1cc]	.
.	.	.	.	1G	.	1dd	bap-
.	.	.	.	[1c	bap-	1ee	-tis-
=241	=241	=241	=241	=241	=241	=241	=241
0.r	.	0.r	.	1c]	.	1cc	.
.	.	.	.	1d	-tis-	2b\	.
.	.	.	.	.	.	1a	.
.	.	.	.	[1e	.	.	.
.	.	.	.	.	.	[2g/	.
=242	=242	=242	=242	=242	=242	=242	=242
0.r	.	0.r	.	2e\]	.	2g/]	.
.	.	.	.	2f\	.	2.dd\	.
.	.	.	.	2e\	.	.	.
.	.	.	.	.	.	4cc\	.
.	.	.	.	2c\	.	2cc\	.
.	.	.	.	1d	.	2a/	.
.	.	.	.	.	.	2b\	.
=243	=243	=243	=243	=243	=243	=243	=243
0C	Con-	0c	Con-	0.c	-ma	0.cc	-ma
1C	-fi-	1c	-fi-	.	.	.	.
=244	=244	=244	=244	=244	=244	=244	=244
2E\	-te-	0B	-te-	0.r	.	0.r	.
2F\	.	.	.	.	.	.	.
1G	-or	.	.	.	.	.	.
2A\	u-	1A	-or	.	.	.	.
[2F\	.	.	.	.	.	.	.
=245	=245	=245	=245	=245	=245	=245	=245
2F\]	.	2c\	u-	0.r	.	0.r	.
2F\	.	2d\	.	.	.	.	.
2E\	.	1e	.	.	.	.	.
2C/	.	.	.	.	.	.	.
1D	.	1f	.	.	.	.	.
=246	=246	=246	=246	=246	=246	=246	=246
1C	-num	1e	-num	0.r	.	0.r	.
1BB	.	0d	.	.	.	.	.
2r	.	.	.	.	.	.	.
2BB/	bap-	.	.	.	.	.	.
=247	=247	=247	=247	=247	=247	=247	=247
2.C/	-tis-	1c	bap-	0.r	.	0.r	.
4D\	.	.	.	.	.	.	.
2E\	.	2G/	.	.	.	.	.
2F\	.	1A	-tis-	.	.	.	.
1D	.	.	.	.	.	.	.
.	.	2B\	.	.	.	.	.
=248	=248	=248	=248	=248	=248	=248	=248
0.C	-ma	1c	-ma	0g	in	0.r	.
.	.	1r	.	.	.	.	.
.	.	1r	.	1g	re-	.	.
=249	=249	=249	=249	=249	=249	=249	=249
1r	.	0g	in	1c	-mis-	0.r	.
1r	.	.	.	1c	-si-	.	.
1G	in	1g	re-	1B	-o-	.	.
=250	=250	=250	=250	=250	=250	=250	=250
2A\	re-	0c	-mis-	2.c\	-nem	0.r	.
1A	-mis-	.	.	.	.	.	.
.	.	.	.	4d\	.	.	.
.	.	.	.	2e\	.	.	.
2F\	.	.	.	2f\	.	.	.
1G	-si-	1B	-si-	1d	.	.	.
=251	=251	=251	=251	=251	=251	=251	=251
1.A	-o-	2c\	-o-	1.c	pec-	0.r	.
.	.	2d\	.	.	.	.	.
.	.	2e\	.	.	.	.	.
2F\	.	2f\	.	2A/	.	.	.
1G	.	1d	.	1B	-ca-	.	.
=252	=252	=252	=252	=252	=252	=252	=252
0.C	-nem	0c	-nem	1c	-to-	0g	in
.	.	.	.	1G	.	.	.
.	.	1r	.	1c	-rum.	1g	re-
=253	=253	=253	=253	=253	=253	=253	=253
0.F	.	1a	pec-	2r	.	1f	-mis-
.	.	.	.	1c	Et	.	.
.	.	2a\	-ca-	.	.	1f	-si-
.	.	1a	-to-	2c\	ex-	.	.
.	.	.	.	2A/	.	1f	-o-
.	.	2a\	.	2B\	.	.	.
=254	=254	=254	=254	=254	=254	=254	=254
0C	.	0g	-rum.	1.c	-spec-	0e	-nem
.	.	.	.	2B\	.	.	.
1c	pec-	2r	.	1A	-to	1f	pec-
.	.	2c\	Et	.	.	.	.
=255	=255	=255	=255	=255	=255	=255	=255
1B	-ca-	2d\	ex-	1G	re-	1g	-ca-
.	.	2e\	.	.	.	.	.
2c\	-to-	1f	-spec-	1F	.	1a	-to-
2A\	.	.	.	.	.	.	.
1B	.	1d	.	1G	-sur-	2g/	.
.	.	.	.	.	.	2f/	.
=256	=256	=256	=256	=256	=256	=256	=256
1c	-rum.	1c	-to	1A	-rec-	0e	-rum.
1C	Et	1r	.	2G/	-ti-	.	.
.	.	.	.	2A/	.	.	.
1BB	ex-	1d	re-	1B	.	2d/	Et
.	.	.	.	.	.	2f/	.
=257	=257	=257	=257	=257	=257	=257	=257
0C	-spec-	1c	.	1G	-o-	2e/	ex-
.	.	.	.	.	.	1g	.
.	.	1G	.	2.c\	.	.	.
.	.	.	.	.	.	1c	.
.	.	.	.	4B\	.	.	.
1C	-to	2g\	-sur-	[1G	.	.	.
.	.	2g\	-rec-	.	.	2cc\	.
=258	=258	=258	=258	=258	=258	=258	=258
1E	re-	2g\	-ti-	1G]	.	1b	-spec-
.	.	2g\	-o-	.	.	.	.
0F	-sur-	1c	-nem	0A	-nem	2a/	.
.	.	.	.	.	.	2.a/	.
.	.	2r	.	.	.	.	.
.	.	.	.	.	.	4g/	.
.	.	2d\	mor-	.	.	2f/	.
=259	=259	=259	=259	=259	=259	=259	=259
1A	-rec-	1c	-tu-	0.r	.	2e/	.
.	.	.	.	.	.	2f/	.
1G	.	1B-	-o-	.	.	2d/	.
.	.	.	.	.	.	1g	.
1c	-ti-	1A	.	.	.	.	.
.	.	.	.	.	.	2f#i/	.
=260	=260	=260	=260	=260	=260	=260	=260
1d	-o-	1G	-rum.	1r	.	1g	-to
0B	-nem	1r	.	0G	mor-	1r	.
.	.	1r	.	.	.	1g	re-
=261	=261	=261	=261	=261	=261	=261	=261
1.c	mor-	0.r	.	0e	.	1a	-sur-
.	.	.	.	.	.	1g	-rec-
2B\	.	.	.	.	.	.	.
1A	-tu-	.	.	1c	-tu-	1cc	-ti-
=262	=262	=262	=262	=262	=262	=262	=262
1G	-o-	0.r	.	1.d	-o-	1b	-o-
0F	.	.	.	.	.	1.a	-nem
.	.	.	.	2c\	.	.	.
.	.	.	.	2A/	.	.	.
.	.	.	.	2B\	.	2g/	.
=263	=263	=263	=263	=263	=263	=263	=263
1E	-rum.	0.r	.	1c	.	1g	mor-
0D	.	.	.	0d	.	2f/	-tu-
.	.	.	.	.	.	1a	-o-
.	.	.	.	.	.	2g/	.
=264	=264	=264	=264	=264	=264	=264	=264
1C	Et	0c	Et	0G	-rum,	1e	.
2E\	vi-	.	.	.	.	2g/	.
2F\	.	.	.	.	.	2f/	.
1G	-tam	1B	.	1r	.	1d	.
=265	=265	=265	=265	=265	=265	=265	=265
0C	ven-	0c	vi-	1G	mor-	2e/	.
.	.	.	.	.	.	2c/	.
.	.	.	.	1A	-tu-	2e/	.
.	.	.	.	.	.	2f/	.
1BB	-tu-	1d	.	1B	-o-	1d	.
=266	=266	=266	=266	=266	=266	=266	=266
0.C	-ri,	1e	-tam	0.G	-rum.	2c/	-rum.
.	.	.	.	.	.	2r	.
.	.	1c	.	.	.	1.g	Et
.	.	1r	.	.	.	.	.
.	.	.	.	.	.	2a/	.
=267	=267	=267	=267	=267	=267	=267	=267
0.r	.	2g\	ven-	1G	et	1b	vi-
.	.	2g\	-tu-	.	.	.	.
.	.	2e\	-ri	1A	vi-	1cc	-tam
.	.	2f\	.	.	.	.	.
.	.	1g	.	1G	-tam	1dd	ven-
=268	=268	=268	=268	=268	=268	=268	=268
1c	ven-	1r	.	1g	ven-	2ee\	-tu-
.	.	.	.	.	.	1cc	.
1A	-tu-	1c	se-	2f\	-tu-	.	.
.	.	.	.	2e\	.	2a/	.
1G	-ri	2d\	.	1g	-ri	1b	-ri
.	.	2e\	.	.	.	.	.
=269	=269	=269	=269	=269	=269	=269	=269
2F\	se-	2f\	.	0c	se-	2.cc\	se-
2C/	.	2e\	.	.	.	.	.
.	.	.	.	.	.	4b\	.
2F\	.	2c\	.	.	.	2a/	.
2E\	.	2G/	.	.	.	2g/	.
1D	-cu-	2A/	-cu-	1d	-cu-	1f	-cu-
.	.	2B\	.	.	.	.	.
=270	=270	=270	=270	=270	=270	=270	=270
[0.C	-li.	2c\	-li.	0G	-li.	2e/	-li.
.	.	1e	A-	.	.	2r	.
.	.	.	.	.	.	2c/	A-
.	.	2c\	.	.	.	2g/	.
.	.	2g\	.	2r	.	2e/	.
.	.	2e\	.	2g\	A-	2c/	.
=271	=271	=271	=271	=271	=271	=271	=271
0C]	.	2c\	.	2e\	.	2r	.
.	.	2r	.	2c\	.	2g/	.
.	.	2g\	.	2r	.	2e/	.
.	.	2e\	.	2g\	.	2g/	.
2E\	A-	2g\	.	2e\	.	2r	.
2F\	.	2f\	.	2a\	.	2cc\	.
=272	=272	=272	=272	=272	=272	=272	=272
1G	.	1d	.	1g	.	2.b\	.
.	.	.	.	.	.	4a/	.
1C	.	1c	-men,	1e	.	1cc	.
1F	.	2r	.	[1f	.	1a	.
.	.	2d\	a-	.	.	.	.
=273	=273	=273	=273	=273	=273	=273	=273
0.F	.	2c\	.	2f\]	.	2r	.
.	.	1A	.	2e\	.	1a	.
.	.	.	.	1c	.	.	.
.	.	2B\	.	.	.	2g/	.
.	.	2c\	.	2A/	.	1f	.
.	.	2A/	.	[2c\	.	.	.
=274	=274	=274	=274	=274	=274	=274	=274
0C	.	2G/	.	4c\]	.	2.e/	.
.	.	.	.	4B\	.	.	.
.	.	1c	.	2A/	.	.	.
.	.	.	.	.	.	4f/	.
.	.	.	.	1G	-men,	2g/	.
.	.	2e\	.	.	.	2cc\	.
1G	.	1d	.	1r	.	1b	.
=275	=275	=275	=275	=275	=275	=275	=275
1A	.	[0.cl	-men.	1F	a-	2a/	.
.	.	.	.	.	.	2.a/	.
1F	.	.	.	1A	.	.	.
.	.	.	.	.	.	4g/	.
.	.	.	.	.	.	2f/	.
1C	.	.	.	1G	.	2.e/	.
.	.	.	.	.	.	4d/	.
=276	=276	=276	=276	=276	=276	=276	=276
0.Fl	-men.	0.c]	.	1.A	.	0.fl	-men.
.	.	.	.	2F/	.	.	.
.	.	.	.	1Fl	-men.	.	.
==	==	==	==	==	==	==	==
*-	*-	*-	*-	*-	*-	*-	*-
!!!RDF**kern: l=long note in original notation
!!!RDF**kern: i=editorial accidental
!!!RDF**kern: V=start of tuplet marker
!!!RDF**kern: Z=end of tuplet marker
!!!ENC:	Planchart/Rodin
!!!END:	2013/11/21/
!!!EED:	Jesse Rodin
!!!EEV:	2013/11/21/
!!!ONB:	Translated from SCORE and edited on 2013/11/21/ by Craig Sapp
!!muse2ps: T^@{OPR}^u^@{ONM}{. }@{OTL}^C^@{COM}^i2I150v85,85,85,130Q2c170
